X:78
T:B078-  Come, open the door, sweet Betty
Q:1/4=120
L:1/4
M:6/4
K:Cm
c|BGEF2d|e3=B2c|BGEF2G|(c3c2):|d|\
edefed|e3d2d|c=Bcf3/2e/2 d/2c/2|(=B3B2)c|\
BGEF2d|e3=B2c|BGEF2G|(c3c2)|]

